modules/feather/icons/dollar-sign.svg

<?xml version="1.0" encoding="UTF-8"?>
<svg width="24px" height="24px" viewBox="0 0 24 24" version="1.1" xmlns="http://www.w3.org/2000/svg" xmlns:xlink="http://www.w3.org/1999/xlink">
    <g id="dollar-sign" fill-rule="evenodd">
        <path d="M13,4 L17.0000001,4 C17.5522848,4 18.0000001,4.44771525 18.0000001,5 C18.0000001,5.55228475 17.5522848,6 17.0000001,6 L13,6 L13,11 L14.5000001,11 C16.9852814,11.0000001 19,13.0147187 19,15.5 C19,17.9852813 16.9852814,19.9999999 14.5000001,20 L13,20 L13,23 C13,23.5522847 12.5522847,24 12,24 C11.4477153,24 11,23.5522847 11,23 L11,20 L6,20 C5.44771525,20 5,19.5522847 5,19 C5,18.4477153 5.44771525,18 6,18 L11,18 L11,13 L9.50000002,13 C7.01471864,13 5,10.9852814 5,8.5 C5,6.01471862 7.01471864,4 9.50000002,4 L11,4 L11,1 C11,0.44771525 11.4477153,0 12,0 C12.5522847,0 13,0.44771525 13,1 L13,4 Z M13,13 L13,18 L14.5,18 C15.8807119,18 17,16.8807119 17,15.5 C17,14.1192881 15.8807119,13 14.5000001,13 L13,13 Z M11,11 L11,6 L9.50000002,6 C8.11928813,6 7,7.11928813 7,8.5 C7,9.88071187 8.11928813,11 9.50000002,11 L11,11 Z" id="Combined-Shape" fill="#000000" fill-rule="nonzero"></path>
    </g>
</svg>

<svg width="24" height="24" viewBox="0 0 24 24" xmlns="http://www.w3.org/2000/svg"><path d="M13 4h4a1 1 0 0 1 0 2h-4v5h1.5a4.5 4.5 0 0 1 0 9H13v3a1 1 0 0 1-2 0v-3H6a1 1 0 0 1 0-2h5v-5H9.5a4.5 4.5 0 1 1 0-9H11V1a1 1 0 0 1 2 0v3zm0 9v5h1.5a2.5 2.5 0 0 0 0-5H13zm-2-2V6H9.5a2.5 2.5 0 1 0 0 5H11z" fill-rule="nonzero"/></svg>
